X: 28720
T: My Dungannon Sweetheart
R: jig
M: 6/8
K: Dmajor
A|:DDE FAd|f3 fec|edd dAF|A>GG GE[Cc]|
[A,A][Cc]E Ace|a3 agf|gec A>Bc|1 dFB AFE:|2 d3- d2 e||
|:f3 fdB|A3 AFE|AFB AFG|AGG GB/c/d|
g3 gec|A>ce a2 f|gec A>Bc|1 dFB A3:|2 d3 d/d/d||

